X:1
T:Daytona Beach, 12.12.12 D
T:Daytona Beach, 12.12.12 D
T:William W. Rousseau, 1897
T:Public Domain Courtesy of the Cyber Hymnal™
C:William W. Rousseau, 1897
Z:Public Domain
Z:Courtesy of the Cyber Hymnal™
%%score ( 1 2 ) ( 3 4 )
L:1/8
Q:1/4=113
M:4/4
K:Eb
V:1 treble 
V:2 treble 
V:3 bass 
V:4 bass 
V:1
 [GB]4 [Ge]2 [GB]2 | [Ae]2 [Ac]2 [GB]2 [EG]2 | [DG]2 [DF]2 E2 [EG]2 | [DF]8 | [EF]4 [EG]2 [E=A]2 | %5
 [FB]2 F2 [EG]2 [Ge]2 | [Ae]2 [Ad]2 [Gc]2 [F=B]2 | [Ec]6 [FB]2 | [GB]2 [EG]2 [DG]2 [DF]2 | %9
 [EG]6 [FB]2 | [GB]2 [EG]2 [DG]2 [DF]2 | [EB]6 [EG]2 | !>![Ge]2 !>![^Fd]2 !>![Gc]2 !>![GB]2 | %13
 [FB]6 [DF]2 | [EG]2 [EF]2 [EG]2 [E=A]2 |"^riten."!<(! (D2 E2 =E2!<)! !fermata!F2) | %16
"^Tempo." [EB]4 [Ge]2!ff! [GB]2 | [Ae]2 [Ac]2 [GB]2 [FA]2 | [DG]2 [DF]2 [EB]2 [EG]2 | [DF]6 [DF]2 | %20
 [EG]2 [DA]2 [EB]2 [EG]2 | [Ec]6!ff! [^Fe]2 |"^slower" [Ge]2 [EG]2 [Dc]2 [DB]2 | E8 |] %24
V:2
 x8 | x8 | x4 E2 x2 | x8 | x8 | x2 F2 x4 | x8 | x8 | x8 | x8 | x8 | x8 | x8 | x8 | x8 | x8 | x8 | %17
 x8 | x8 | x8 | x8 | x8 | x8 | E8 |] %24
V:3
 [E,B,]4 [E,B,]2 [E,B,]2 | [E,C]2 [E,D]2 [E,E]2 [E,B,]2 | [A,B,]2 [A,B,]2 [G,B,]2 [E,=A,]2 | %3
 [B,,B,]8 | [C,=A,]4 [C,B,]2 [C,C]2 | [D,B,]2 [D,B,]2 [D,B,]2 [C,C]2 | %6
 [F,C]2 [F,F]2 [G,E]2 [G,D]2 | [C,C]6 [D,B,]2 | [E,B,]2 [E,B,]2 [A,B,]2 [A,B,]2 | [G,B,]6 [D,B,]2 | %10
 [E,B,]2 [E,B,]2 [A,B,]2 [A,B,]2 | [G,B,]6 [E,B,]2 | [C,B,]2 [D,=A,]2 [E,C]2 [=E,^C]2 | %13
 [F,D]6 [F,B,]2 | [F,=A,]2 [F,A,]2 [F,B,]2 [F,C]2 | B,6 !fermata![D,A,]2 | %16
 [E,G,]4 [E,B,]2 [E,B,]2 | [E,C]2 [E,D]2 [E,E]2 [E,B,]2 | [A,B,]2 [A,B,]2 [G,B,]2 [E,=A,]2 | %19
 [B,,B,]6 [B,,B,]2 | [E,B,]2 [F,B,]2 [G,B,]2 [E,B,]2 | A,6 [=A,C]2 | B,2 B,2 A,2 [B,,A,]2 | %23
 [E,G,]8 |] %24
V:4
 x8 | x8 | x8 | x8 | x8 | x8 | x8 | x8 | x8 | x8 | x8 | x8 | x8 | x8 | x8 | B,,2 C,2 ^C,2 x2 | x8 | %17
 x8 | x8 | x8 | x8 | =A,6 x2 | B,2 B,2 x4 | x8 |] %24

